resources/haticons/SVG/av_timer.svg

<!-- Generated by IcoMoon.io -->
<svg version="1.1" xmlns="http://www.w3.org/2000/svg" width="24" height="24" viewBox="0 0 24 24">
<title>av_timer</title>
<path d="M6 12q0-0.422 0.281-0.703t0.703-0.281 0.727 0.281 0.305 0.703-0.305 0.703-0.727 0.281-0.703-0.281-0.281-0.703zM18 12q0 0.422-0.281 0.703t-0.703 0.281-0.727-0.281-0.305-0.703 0.305-0.703 0.727-0.281 0.703 0.281 0.281 0.703zM11.016 3h0.984q3.75 0 6.375 2.625t2.625 6.375-2.625 6.375-6.375 2.625-6.375-2.625-2.625-6.375q0-4.5 3.609-7.172v-0.047l6.797 6.797-1.406 1.406-5.438-5.391q-1.547 1.922-1.547 4.406 0 2.906 2.039 4.945t4.945 2.039 4.945-2.039 2.039-4.945q0-2.625-1.734-4.594t-4.266-2.344v1.922h-1.969v-3.984zM11.016 17.016q0-0.422 0.281-0.727t0.703-0.305 0.703 0.305 0.281 0.727-0.281 0.703-0.703 0.281-0.703-0.281-0.281-0.703z"></path>
</svg>

<svg xmlns="http://www.w3.org/2000/svg" width="24" height="24"><path d="M6 12q0-.422.281-.703t.703-.281.727.281.305.703-.305.703-.727.281-.703-.281T6 12zm12 0q0 .422-.281.703t-.703.281-.727-.281-.305-.703.305-.703.727-.281.703.281T18 12zm-6.984-9H12q3.75 0 6.375 2.625T21 12t-2.625 6.375T12 21t-6.375-2.625T3 12q0-4.5 3.609-7.172v-.047l6.797 6.797L12 12.984 6.562 7.593q-1.547 1.922-1.547 4.406 0 2.906 2.039 4.945t4.945 2.039 4.945-2.039 2.039-4.945q0-2.625-1.734-4.594t-4.266-2.344v1.922h-1.969V2.999zm0 14.016q0-.422.281-.727t.703-.305.703.305.281.727-.281.703T12 18t-.703-.281-.281-.703z"/></svg>
